X: 21
T:Padraig O'Keeffes (2)
R:Slide
M:6/8
S:Noel Hill, Clare (concertina)
D:Tape of concert in Dublin '91
Z:Bernie Stocks
K:G
GAG FED | E2F G2A | B2G c2A | BAG c2A | Bcd EFD | ABG FED | EFG AFD | G3 G2D ::
GAG GBd | e2f g2e | dBG GBd | e2f g2e | dBG cBA | dBG FED | EFG AFD | G3 G3 :|
<end>
<start>
